X:71
T:Prince of Coborgs Horpipe. JGi.071
O:Tealby,Lincolnshire
N: Prince referred to is probably Albert, subsequently Prince of Wales, consort of Queen Victoria.
M:C|
L:1/8
Q:1/2=90
S:Joshua Gibbons MS,1823,Tealby,Lincs.
R:.hornpipe
Z:VMP/R.Greig, 2009
K:C
G|c2cc cegc’|a2f2f2aa|ageg gfdf| fece dBGA|
c2 cc cegc’|a2f2f2aa|ageg gfdB|c2c2c2:|
|:eg|fdBd GBdf|e2c2c2eg|fdBd GBdf|
e2c2c2eg|fdBd GBdf|e2c2c2c’c’|c’bbb baaa|
(ag)gg gfff|feag fedc|BGdB”Da Capo” eGdG:|

